X:1
T:Amante confuso-Vuestra bellezza
T:Giovanni Stefani
T:Vilanella Spagnola
T:Source : Affetti amorosi-Canzonette ad una voce sola---Venetia---A.Vincenti---1621. Editor : André Vierendeels (05/11/15).
T:Notes : Original clefs : C1, F4 Editorial accidentals above the staff Note values have been halved Alfabetto et intavolatura per la chitarra Spagnola Terza impressione (first print 1618)
T:Vuestra bellezza senora-Amanta confuso
C:Giovanni Stefani
%%score 1 { ( 2 3 ) | 4 }
L:1/8
Q:1/4=80
M:3/4
K:C
V:1 treble nm="Soprano" snm="S"
V:2 treble nm="BC" snm="BC"
V:3 treble 
V:4 bass 
V:1
 F2 F2 F2 | G2 G2 G2 | A4 A2 | A2 A2 A2 | B2 B2 B2 | ^c2 c2 c2 | d2 d2 d2 | d2 ^c2 c2 | d4 A2 | %9
w: Vue- stra bel-|lez- za, se-|no- ra,|vue- stra bel-|lez- za, se-|no- ra, me|tie- ne con-|fu- so'e'l mi-|rar, me|
w: No se pu-|e- de mas|que- rer,|no se pu-|e- de mas|que- rer, co-|mo à vos|qui- e- ro|yo, co-|
 D2 D2 D2 | A2 A2 A2 |"^b" c2 B2 A2 | A2 A2 G2 | A4 G2 | G2 G2 A2 | ^F2 F2 F2 | G2 G2 G2 | %17
w: tie- ne con-|fu- so, me|tie- ne con-|fu- so'e'l mi-|rar, me|tie- ne con-|fu- so, me|tie- ne con-|
w: mo'à vos qui-|e- ro, co-|mo à vos|qui- e- ro|yo, co-|mo'à vos qui-|e- re, co-|mo à vos|
 G2 G2 ^F2 | G6 | _B4 A2 | A6!fine! || F2 F2 F2 | G4 G2 | A4 A2 | z2 A2 A2 |"^b" B2 B2 d2 | %26
w: fu- so'e'l mi-|rar,|e'l mi-|rar.|Sien- to me|gran con-|sue- lo,|quan- do|ve- o a|
w: qui- e- re|yo,|quie- re|yo.|Que si me|de- cis|de no:|que- ro|a es- to|
 d4 ^c2 | d4 d2 | z2 d2 d2 | d2 d2 d2 | c4 c2 | A4 A2 | z4 A2 | _B2 B2 d2 | d4 ^c2 | d4 d2 | %36
w: vue- stra|ca- ra,|as- so-|mar- se al-|la ven-|ta- na,|que|yo mue- ro|pas- mo'y|due- lo,|
w: res- pon-|der, _|que quan-|to a mi|pe- re-|cer, _|no|se pue- de|ma a|mar,- _|
 z2 F2 F2 | F2 F2 F2 | G4 G2 | A4 A2 | A4 A2 |"^b""^b" B2 B2 d2 | d4 ^c2 | d6!D.C.! :| %44
w: y me|da- is gran-|de con-|sue- lo,|y des-|se- o por|vos mo-|rir.|
w: que quan-|to a mi|pe- re-|cer,- _|no se|pue- de _|ma a-|mar.|
V:2
 A6 | c6 | c6 | A6 | c6 | A6 | _B6 | d2 ^c4 | A6 | A6 | c6 | A2 _B2 c2 | c2 B4 | ^c4 d2 | G4 A2 | %15
 A6 | _B6- | B4 A2 | B6 | _B4 A2 | A6 || A6 | c6 | c6 | A6 | _B6 | A4 A2 | A6 | A6 | _B6 | G6 | %31
 F6 | c6 | _B6 | A2 d2 ^c2 | d6 | A6 | A6 | G6 | A6 | c6 | _B6 | A2 d2 ^c2 | d6 :| %44
V:3
 F6 | E6 | A6 | F6 | D6 | E6 | F6 | G2 E4 | ^F6 | F6 | E6 | F6 | E6 | E4 G2 | E6 | D6 | D6- | %17
 D4 D2 | D6 | D4 D2 | ^F6 || F6 | E6 | A6 | F6 | D6 | F4 E2 | ^F6 | F6 | F6 | E6 | C6 | A6 | %33
 D4 F2- | F2 E4 | F6 | F6 | D6 | E6 | C6 | F6 | D6 | F2 E4 | ^F6 :| %44
V:4
 D,6 | C,6 | F,6 | F,6 | G,6 | A,6 | _B,6 |"^#" G,2 A,4 | D,4 D,2 | D,6 | A,,6 | F,6 | E,6 | %13
 A,,4 B,,2 | C,6 | D,6 | G,,6 | G,,4 D,2 | G,,6 |"^b" G,,4 D,2 | D,6 || D,6 | C,6 | F,,6 | F,6 | %25
 G,4 _B,2 | A,4 A,2 | D,6 | D,6 | _B,,6 | C,6 | F,,6 | F,6 | G,4 _B,2 | A,6 | D,6 | D,6 | D,6 | %38
 C,6 | F,,6 | F,6 | G,4 _B,2 | A,6 | D,6 :| %44

